X:0977
T:Araidh nam badan,
C:Gaelic.
M:6/8
L:1/8
Q:3/8=116
I: :: :|
Z:Jack Campin * www.campin.me.uk * 2009
K:A Dorian
d>GG G>AB|ded BAG|BAA ABd|e3 g3 |dBG  GAB |d>ed BAG |BAA  ABd|e3 c3:|
deg  ggg |aba geg|edd deg|a3 g2a|b>gg a>ee|g>dd e>gg|B>AA ABd|e3 c3:|
<end>
<start>
